src/assets/outline/CardSlash.svg

<svg width="24" height="24" viewBox="0 0 24 24"  xmlns="http://www.w3.org/2000/svg">
<path d="M15.24 9.25H2C1.59 9.25 1.25 8.91 1.25 8.5C1.25 8.09 1.59 7.75 2 7.75H15.24C15.65 7.75 15.99 8.09 15.99 8.5C15.99 8.91 15.65 9.25 15.24 9.25Z" />
<path d="M7.29 17.25H6C5.59 17.25 5.25 16.91 5.25 16.5C5.25 16.09 5.59 15.75 6 15.75H7.29C7.7 15.75 8.04 16.09 8.04 16.5C8.04 16.91 7.71 17.25 7.29 17.25Z" />
<path d="M14.5 17.25H11C10.59 17.25 10.25 16.91 10.25 16.5C10.25 16.09 10.59 15.75 11 15.75H14.5C14.91 15.75 15.25 16.09 15.25 16.5C15.25 16.91 14.91 17.25 14.5 17.25Z" />
<path d="M17.56 21.25H7.97998C7.56998 21.25 7.22998 20.91 7.22998 20.5C7.22998 20.09 7.56998 19.75 7.97998 19.75H17.56C20.7 19.75 21.25 19.21 21.25 16.11V6.89001C21.25 6.48001 21.59 6.14001 22 6.14001C22.41 6.14001 22.75 6.48001 22.75 6.89001V16.1C22.75 20.05 21.54 21.25 17.56 21.25Z" />
<path d="M3.71 20.89C3.62 20.89 3.52 20.87 3.43 20.84C1.62 20.12 1.25 18.43 1.25 16.11V7.89C1.25 3.95 2.46 2.75 6.44 2.75H17.55C18.69 2.75 19.53 2.84 20.19 3.04C20.59 3.16 20.81 3.57 20.7 3.97C20.58 4.37 20.16 4.59 19.77 4.48C19.25 4.33 18.55 4.26 17.55 4.26H6.44C3.3 4.26 2.75 4.8 2.75 7.9V16.11C2.75 18.5 3.18 19.13 3.99 19.45C4.38 19.6 4.56 20.04 4.41 20.42C4.29 20.71 4.01 20.89 3.71 20.89Z" />
<path d="M1.99994 22.75C1.80994 22.75 1.61994 22.68 1.46994 22.53C1.17994 22.24 1.17994 21.76 1.46994 21.47L21.4699 1.47C21.7599 1.18 22.2399 1.18 22.5299 1.47C22.8199 1.76 22.8199 2.24 22.5299 2.53L2.52994 22.53C2.37994 22.68 2.18994 22.75 1.99994 22.75Z" />
</svg>

<?xml version="1.0" encoding="UTF-8"?>
<svg width="24" height="24" viewBox="0 0 24 24" xmlns="http://www.w3.org/2000/svg">
 <path d="m15.24 9.25h-13.24c-0.41 0-0.75-0.34-0.75-0.75s0.34-0.75 0.75-0.75h13.24c0.41 0 0.75 0.34 0.75 0.75s-0.34 0.75-0.75 0.75z"/>
 <path d="m7.29 17.25h-1.29c-0.41 0-0.75-0.34-0.75-0.75s0.34-0.75 0.75-0.75h1.29c0.41 0 0.75 0.34 0.75 0.75s-0.33 0.75-0.75 0.75z"/>
 <path d="m14.5 17.25h-3.5c-0.41 0-0.75-0.34-0.75-0.75s0.34-0.75 0.75-0.75h3.5c0.41 0 0.75 0.34 0.75 0.75s-0.34 0.75-0.75 0.75z"/>
 <path d="m17.56 21.25h-9.58c-0.41 0-0.75-0.34-0.75-0.75s0.34-0.75 0.75-0.75h9.58c3.14 0 3.69-0.54 3.69-3.64v-9.22c0-0.41 0.34-0.75 0.75-0.75s0.75 0.34 0.75 0.75v9.21c0 3.95-1.21 5.15-5.19 5.15z"/>
 <path d="m3.71 20.89c-0.09 0-0.19-0.02-0.28-0.05-1.81-0.72-2.18-2.41-2.18-4.73v-8.22c0-3.94 1.21-5.14 5.19-5.14h11.11c1.14 0 1.98 0.09 2.64 0.29 0.4 0.12 0.62 0.53 0.51 0.93-0.12 0.4-0.54 0.62-0.93 0.51-0.52-0.15-1.22-0.22-2.22-0.22h-11.11c-3.14 0-3.69 0.54-3.69 3.64v8.21c0 2.39 0.43 3.02 1.24 3.34 0.39 0.15 0.57 0.59 0.42 0.97-0.12 0.29-0.4 0.47-0.7 0.47z"/>
 <path d="m1.9999 22.75c-0.19 0-0.38-0.07-0.53-0.22-0.29-0.29-0.29-0.77 0-1.06l20-20c0.29-0.29 0.77-0.29 1.06 0s0.29 0.77 0 1.06l-20 20c-0.15 0.15-0.34 0.22-0.53 0.22z"/>
</svg>
